src/icons/file-diff.svg

<?xml version="1.0" encoding="UTF-8" standalone="no"?>
<svg
   version="1.2"
   viewBox="0 0 16 16"
   width="16"
   height="16"
   id="svg2"
   sodipodi:docname="file-diff.svg"
   inkscape:version="1.4 (e7c3feb100, 2024-10-09)"
   xmlns:inkscape="http://www.inkscape.org/namespaces/inkscape"
   xmlns:sodipodi="http://sodipodi.sourceforge.net/DTD/sodipodi-0.dtd"
   xmlns="http://www.w3.org/2000/svg"
   xmlns:svg="http://www.w3.org/2000/svg">
  <defs
     id="defs2" />
  <sodipodi:namedview
     id="namedview2"
     pagecolor="#505050"
     bordercolor="#eeeeee"
     borderopacity="1"
     inkscape:showpageshadow="0"
     inkscape:pageopacity="0"
     inkscape:pagecheckerboard="0"
     inkscape:deskcolor="#505050"
     inkscape:zoom="37.75"
     inkscape:cx="7.986755"
     inkscape:cy="8"
     inkscape:window-width="1316"
     inkscape:window-height="755"
     inkscape:window-x="20"
     inkscape:window-y="20"
     inkscape:window-maximized="0"
     inkscape:current-layer="svg2" />
  <title
     id="title1">file-icon</title>
  <style
     id="style1">
		.s0 { fill: #5bafd4 } 
		.s1 { fill: #000000 } 
	</style>
  <g
     id="Layer 1">
    <path
       id="path1"
       class="s0"
       d="M 7 2 C 5.6 2 4.9003906 2.0007814 4.4003906 2.3007812 C 3.9003906 2.5007813 3.5007814 2.9003906 3.3007812 3.4003906 C 3.0007814 3.9003906 3 4.6 3 6 L 3 11 C 3 12.4 3.0007814 13.099609 3.3007812 13.599609 C 3.5007814 14.099609 3.9003906 14.499219 4.4003906 14.699219 C 4.9003906 14.999219 5.6 15 7 15 L 10 15 C 11.4 15 12.099609 14.999219 12.599609 14.699219 C 13.099609 14.499219 13.499219 14.099609 13.699219 13.599609 C 13.999219 13.099609 14 12.4 14 11 L 14 7.3007812 C 14 6.8007813 14.000391 6.6003906 13.900391 6.4003906 C 13.900391 6.2003906 13.832552 6.0007813 13.699219 5.8007812 C 13.599219 5.6007814 13.399609 5.3996094 13.099609 5.0996094 L 10.900391 2.9003906 C 10.600391 2.6003906 10.399219 2.4007813 10.199219 2.3007812 C 9.9992185 2.167448 9.7996094 2.0996094 9.5996094 2.0996094 C 9.3996094 1.9996094 9.1992188 2 8.6992188 2 L 7 2 z M 8.1699219 4.2304688 C 8.7699219 4.2304688 9.0703125 4.6955729 9.0703125 5.6289062 L 9.0703125 5.9296875 L 9.3710938 5.9296875 C 10.23776 5.9296875 10.669922 6.2300781 10.669922 6.8300781 C 10.669922 7.4300781 10.23776 7.7304687 9.3710938 7.7304688 L 9.0703125 7.7304688 L 9.0703125 8.0292969 C 9.0703125 8.9626303 8.7699219 9.4296875 8.1699219 9.4296875 C 7.5699219 9.4296875 7.2695313 8.9626303 7.2695312 8.0292969 L 7.2695312 7.7304688 L 6.9707031 7.7304688 C 6.0373697 7.7304688 5.5703125 7.4300781 5.5703125 6.8300781 C 5.5703125 6.2300781 6.0373697 5.9296875 6.9707031 5.9296875 L 7.2695312 5.9296875 L 7.2695312 5.6289062 C 7.2695312 4.6955729 7.5699219 4.2304688 8.1699219 4.2304688 z M 6.9707031 10.929688 L 9.3710938 10.929688 C 10.237761 10.929688 10.669922 11.230078 10.669922 11.830078 C 10.669922 12.430078 10.237761 12.730469 9.3710938 12.730469 L 6.9707031 12.730469 C 6.0373698 12.730469 5.5703125 12.430078 5.5703125 11.830078 C 5.5703125 11.230078 6.0373698 10.929686 6.9707031 10.929688 z " />
  </g>
</svg>

<svg xmlns="http://www.w3.org/2000/svg" width="16" height="16" version="1.2"><path d="M7 2c-1.4 0-2.1 0-2.6.3-.5.2-.9.6-1.1 1.1C3 3.9 3 4.6 3 6v5c0 1.4 0 2.1.3 2.6.2.5.6.9 1.1 1.1.5.3 1.2.3 2.6.3h3c1.4 0 2.1 0 2.6-.3.5-.2.9-.6 1.1-1.1.3-.5.3-1.2.3-2.6V7.3c0-.5 0-.7-.1-.9q0-.3-.2-.6c-.1-.2-.3-.4-.6-.7l-2.2-2.2c-.3-.3-.5-.5-.7-.6q-.3-.2-.6-.2C9.4 2 9.2 2 8.7 2zm1.17 2.23q.9 0 .9 1.399v.3h.301q1.3 0 1.299.901 0 .9-1.299.9h-.3v.3q0 1.4-.901 1.4-.9 0-.9-1.4v-.3h-.3q-1.4 0-1.4-.9t1.4-.9h.3v-.301q0-1.4.9-1.399m-1.2 6.7h2.401q1.3 0 1.299.9 0 .9-1.299.9h-2.4q-1.4 0-1.4-.9t1.4-.9" style="fill:#5bafd4"/></svg>
